X:103
T:Over The Border
C:Joe Buchanan's Scottish Tome - Page 130.1
I:130 1
Z:Carl Allison
R:Jig
L:1/8
M:6/8
K:G
G3 G3 | G>BA G>ED | G>ED E2 D | e>dB A2 B |
G3 G3 | G>BA G>ED | cd/e (d<g)G | G>AB {B}A2 G :|
GB/d dB/G | ed/B BA/G | GB/d ef/g | G>AB B>AG |
GB/d dB/G | ed/B BA/G | D>GE D>EF | G>AB A2 G :|

